symbols/web/check/materialsymbolsrounded/check_wght300grad200_40px.svg

<svg xmlns="http://www.w3.org/2000/svg" height="40" width="40"><path d="M15.833 29.25q-.333 0-.625-.125-.291-.125-.5-.375l-7.333-7.333q-.417-.375-.417-.979 0-.605.417-1.021.417-.417.979-.417.563 0 1.021.417l6.458 6.5 14.834-14.834q.416-.416 1-.416.583 0 1 .416.416.417.416 1 0 .584-.416 1L17 28.75q-.25.25-.542.375-.291.125-.625.125Z"/></svg>

<svg xmlns="http://www.w3.org/2000/svg" height="40" width="40"><path d="M15.833 29.25Q15.5 29.25 15.208 29.125Q14.917 29 14.708 28.75L7.375 21.417Q6.958 21.042 6.958 20.438Q6.958 19.833 7.375 19.417Q7.792 19 8.354 19Q8.917 19 9.375 19.417L15.833 25.917L30.667 11.083Q31.083 10.667 31.667 10.667Q32.25 10.667 32.667 11.083Q33.083 11.5 33.083 12.083Q33.083 12.667 32.667 13.083L17 28.75Q16.75 29 16.458 29.125Q16.167 29.25 15.833 29.25Z"/></svg>
